public/logos/CNRS.svg

<?xml version="1.0" encoding="UTF-8" standalone="no"?>
<svg
   xmlns:dc="http://purl.org/dc/elements/1.1/"
   xmlns:cc="http://creativecommons.org/ns#"
   xmlns:rdf="http://www.w3.org/1999/02/22-rdf-syntax-ns#"
   xmlns:svg="http://www.w3.org/2000/svg"
   xmlns="http://www.w3.org/2000/svg"
   xmlns:sodipodi="http://sodipodi.sourceforge.net/DTD/sodipodi-0.dtd"
   xmlns:inkscape="http://www.inkscape.org/namespaces/inkscape"
   width="136.06335pt"
   height="136.06346pt"
   id="svg2"
   version="1.1"
   inkscape:version="0.91 r13725"
   sodipodi:docname="CNRS.svg">
  <metadata
     id="metadata32">
    <rdf:RDF>
      <cc:Work
         rdf:about="">
        <dc:format>image/svg+xml</dc:format>
        <dc:type
           rdf:resource="http://purl.org/dc/dcmitype/StillImage" />
        <dc:title></dc:title>
      </cc:Work>
    </rdf:RDF>
  </metadata>
  <defs
     id="defs30" />
  <sodipodi:namedview
     pagecolor="#ffffff"
     bordercolor="#666666"
     borderopacity="1"
     objecttolerance="10"
     gridtolerance="10"
     guidetolerance="10"
     inkscape:pageopacity="0"
     inkscape:pageshadow="2"
     inkscape:window-width="1364"
     inkscape:window-height="747"
     id="namedview28"
     showgrid="false"
     fit-margin-top="0"
     fit-margin-left="0"
     fit-margin-right="0"
     fit-margin-bottom="0"
     inkscape:zoom="0.22425732"
     inkscape:cx="147.01408"
     inkscape:cy="-257.04557"
     inkscape:window-x="0"
     inkscape:window-y="19"
     inkscape:window-maximized="1"
     inkscape:current-layer="svg2" />
  <g
     transform="translate(-0.03594186,-0.05637431)"
     style="fill:#000033;fill-rule:nonzero;stroke:none;stroke-width:1pt;stroke-linecap:butt;stroke-linejoin:miter;stroke-dasharray:none"
     id="g4">
    <path
       d="M 81.4697,0.200196 C 79.9785,0.108399 78.4961,0.060547 77.0235,0.056641 55.9278,0 36.8223,8.96582 20.1768,26.7578 5.08105,42.8907 0,55.876 0.036133,71.5498 0.056641,79.9541 1.54785,89.1289 3.75683,99.977 c 4.14551,20.369 16.23737,40.033 33.17387,53.956 12.958,10.648 27.4082,16.092 42.6367,16.201 7.9082,0.057 16.0264,-1.326 24.2546,-4.166 26.529,-9.156 51.906,-35.373 61.714,-63.752 3.087,-8.9376 4.596,-17.6339 4.579,-25.9152 C 170.073,55.9219 160.786,38.0567 143.007,25.291 121.483,9.83207 100.781,1.39258 81.4697,0.200196 Z"
       id="path6"
       inkscape:connector-curvature="0" />
  </g>
  <g
     transform="translate(18.094058,42.523626)"
     style="fill:#ffffff;fill-rule:nonzero;stroke:none;stroke-width:1pt;stroke-linecap:butt;stroke-linejoin:miter;stroke-dasharray:none"
     id="g8">
    <path
       d="m 35.2178,38.2705 c 0,0 -5.833,0 -5.833,0 0,0 -0.0078,0.1651 -0.0078,0.1651 -0.0459,1.1308 -0.7188,11.0546 -9.5977,11.0546 -7.9355,0 -11.9629,-7.1113 -11.9727,-21.1377 0.0098,-14.0283 4.0372,-21.1406 11.9727,-21.1406 9.0332,0 9.5801,10.6045 9.5977,11.0557 0,0 0.0078,0.1641 0.0078,0.1641 0,0 5.833,0 5.833,0 0.5381,0 1.0625,-0.2208 1.4375,-0.6055 0.3593,-0.3701 0.5449,-0.8477 0.5205,-1.3447 C 37.0537,13.7285 35.6426,0 19.6973,0 6.8096,0 0,9.793 0,28.3223 0,46.8897 6.8096,56.7031 19.6973,56.7031 35.043,56.7031 36.9512,44.165 37.1729,40.3223 37.21,39.791 37.0293,39.2822 36.6562,38.8906 36.2852,38.4961 35.7578,38.2705 35.2178,38.2705 Z"
       id="path10"
       inkscape:connector-curvature="0" />
  </g>
  <g
     transform="translate(117.74506,42.517626)"
     style="fill:#66ffe5;fill-rule:nonzero;stroke:none;stroke-width:1pt;stroke-linecap:butt;stroke-linejoin:miter;stroke-dasharray:none"
     id="g12">
    <path
       d="m 20.205,24.9864 c 0,0 0.003,0.0019 0.003,0.0019 0,0 -5.025,-2.1914 -5.025,-2.1914 -4.832,-2.123 -6.545,-4.1875 -6.545,-7.8945 0,-4.832 3.534,-8.0801 8.796,-8.0801 3.111,0 5.662,0.6377 8.778,3.8106 0,0 0.171,0.1738 0.171,0.1738 0,0 2.68,-2.4522 2.68,-2.4522 C 30.617,6.9131 30.167,5.6143 29.518,4.7793 26.904,1.6944 22.704,0 17.691,0 8.022,0 1.003,6.3077 1.003,14.9981 c 0,8.5469 5.385,12.1191 11.202,14.7061 0,0 5.128,2.288 5.128,2.288 5.152,2.3106 7.605,4.2813 7.605,9.2383 0,6.7608 -6.109,8.5625 -9.718,8.5625 -3.106,0 -6.562,-0.6631 -10.811,-5.4756 0,0 -0.166,-0.1904 -0.166,-0.1904 0,0 -2.792,2.4531 -2.792,2.4531 -1.438,1.2637 -1.451,2.3487 -0.05,4.1494 3.845,4.9424 9.483,5.9795 13.536,5.9795 8.764,0 17.637,-5.3828 17.637,-15.6699 0,-8.9043 -4.944,-12.8574 -12.369,-16.0527 z"
       id="path14"
       inkscape:connector-curvature="0" />
  </g>
  <g
     transform="translate(58.407058,42.576626)"
     style="fill:#66ffe5;fill-rule:nonzero;stroke:none;stroke-width:1pt;stroke-linecap:butt;stroke-linejoin:miter;stroke-dasharray:none"
     id="g16">
    <path
       d="M 34.0068,16.1709 C 34.0068,7.417 26.9131,0 18.1553,0 14.0371,0 10.2871,1.5704 7.4677,4.1465 c 0,0 0,-3.0097 0,-3.0097 0,0 -5.2734,0 -5.2734,0 C 0.6054,1.1368 0,2.1739 0,3.3653 c 0,0 0,51.082 0,51.082 0,1.4375 0.876,2.207 2.1699,2.207 0,0 5.2744,0 5.2744,0 0,0 0,-40.1718 0,-40.1738 0,-5.2773 4.2813,-9.5557 9.5567,-9.5557 5.2773,0 9.5576,4.2784 9.5576,9.5557 0,0.002 0,40.1797 0,40.1797 0,0 5.2412,0 5.2412,0 1.4531,0 2.207,-0.8057 2.207,-2.1973 0,0 0,-38.2422 0,-38.292 z"
       id="path18"
       inkscape:connector-curvature="0" />
  </g>
  <g
     transform="translate(95.737058,42.476626)"
     style="fill:#ffffff;fill-rule:nonzero;stroke:none;stroke-width:1pt;stroke-linecap:butt;stroke-linejoin:miter;stroke-dasharray:none"
     id="g20">
    <path
       d="m 23.9154,3.918 c 0.275,-0.3418 0.445,-0.7705 0.445,-1.2422 0,-0.8789 -0.573,-1.6172 -1.361,-1.8848 C 21.4734,0.2793 19.8474,0 18.1584,0 c -4.118,0 -7.868,1.5703 -10.688,4.1455 0,0 0,-3.0087 0,-3.0087 0,0 -5.2742,0 -5.2742,0 C 0.6084,1.1368 0,2.1739 0,3.3662 c 0,0 0,51.0811 0,51.0811 0,1.4375 0.8808,2.207 2.1738,2.207 0,0 5.2726,0 5.2726,0 0,0 0,-40.1718 0,-40.1738 0,-5.2773 4.281,-9.5566 9.559,-9.5566 1.382,0 2.695,0.3007 3.88,0.8281 0,0 3.047,-3.8233 3.047,-3.8233 0,0 -0.017,-0.0107 -0.017,-0.0107 z"
       id="path22"
       inkscape:connector-curvature="0" />
  </g>
  <g
     transform="translate(74.012058,56.696626)"
     style="fill:#ffffff;fill-rule:nonzero;stroke:none;stroke-width:1pt;stroke-linecap:butt;stroke-linejoin:miter;stroke-dasharray:none"
     id="g24">
    <path
       d="m 2.834,97.797 c 0,0.783 -0.6348,1.416 -1.418,1.416 C 0.6338,99.213 0,98.58 0,97.797 0,97.797 0,1.417 0,1.417 0,0.6338 0.6338,0 1.416,0 c 0.7832,0 1.418,0.6338 1.418,1.417 0,0 0,96.38 0,96.38 z"
       id="path26"
       inkscape:connector-curvature="0" />
  </g>
</svg>

<?xml version="1.0" encoding="UTF-8"?>
<svg width="595.28pt" xmlns:xlink="http://www.w3.org/1999/xlink" xmlns="http://www.w3.org/2000/svg" height="841.89pt" >
 <g transform="translate(225, 99)" style="fill:#000033; fill-rule:nonzero; stroke:none; stroke-width:1pt; stroke-linecap:butt; stroke-linejoin:miter; stroke-dasharray:none;" >
  <path d="M81.4697 0.200196 C79.9785 0.108399 78.4961 0.060547 77.0235 0.056641 C55.9278 0 36.8223 8.96582 20.1768 26.7578 C5.08105 42.8907 0 55.876 0.036133 71.5498 C0.056641 79.9541 1.54785 89.1289 3.75683 99.977 C7.90234 120.346 19.9942 140.01 36.9307 153.933 C49.8887 164.581 64.3389 170.025 79.5674 170.134 C87.4756 170.191 95.5938 168.808 103.822 165.968 C130.351 156.812 155.728 130.595 165.536 102.216 C168.623 93.2784 170.132 84.5821 170.115 76.3008 C170.073 55.9219 160.786 38.0567 143.007 25.291 C121.483 9.83207 100.781 1.39258 81.4697 0.200196 Z" />
 </g>
 <g transform="translate(243.13, 141.58)" style="fill:#ffffff; fill-rule:nonzero; stroke:none; stroke-width:1pt; stroke-linecap:butt; stroke-linejoin:miter; stroke-dasharray:none;" >
  <path d="M35.2178 38.2705 C35.2178 38.2705 29.3848 38.2705 29.3848 38.2705 C29.3848 38.2705 29.377 38.4356 29.377 38.4356 C29.3311 39.5664 28.6582 49.4902 19.7793 49.4902 C11.8438 49.4902 7.8164 42.3789 7.8066 28.3525 C7.8164 14.3242 11.8438 7.2119 19.7793 7.2119 C28.8125 7.2119 29.3594 17.8164 29.377 18.2676 C29.377 18.2676 29.3848 18.4317 29.3848 18.4317 C29.3848 18.4317 35.2178 18.4317 35.2178 18.4317 C35.7559 18.4317 36.2803 18.2109 36.6553 17.8262 C37.0146 17.4561 37.2002 16.9785 37.1758 16.4815 C37.0537 13.7285 35.6426 0 19.6973 0 C6.8096 0 0 9.793 0 28.3223 C0 46.8897 6.8096 56.7031 19.6973 56.7031 C35.043 56.7031 36.9512 44.165 37.1729 40.3223 C37.21 39.791 37.0293 39.2822 36.6562 38.8906 C36.2852 38.4961 35.7578 38.2705 35.2178 38.2705 Z" />
 </g>
 <g transform="translate(342.781, 141.574)" style="fill:#66ffe5; fill-rule:nonzero; stroke:none; stroke-width:1pt; stroke-linecap:butt; stroke-linejoin:miter; stroke-dasharray:none;" >
  <path d="M20.205 24.9864 C20.205 24.9864 20.208 24.9883 20.208 24.9883 C20.208 24.9883 15.183 22.7969 15.183 22.7969 C10.351 20.6739 8.638 18.6094 8.638 14.9024 C8.638 10.0704 12.172 6.8223 17.434 6.8223 C20.545 6.8223 23.096 7.46 26.212 10.6329 C26.212 10.6329 26.383 10.8067 26.383 10.8067 C26.383 10.8067 29.063 8.3545 29.063 8.3545 C30.617 6.9131 30.167 5.6143 29.518 4.7793 C26.904 1.6944 22.704 0 17.691 0 C8.022 0 1.003 6.3077 1.003 14.9981 C1.003 23.545 6.388 27.1172 12.205 29.7042 C12.205 29.7042 17.333 31.9922 17.333 31.9922 C22.485 34.3028 24.938 36.2735 24.938 41.2305 C24.938 47.9913 18.829 49.793 15.22 49.793 C12.114 49.793 8.658 49.1299 4.409 44.3174 C4.409 44.3174 4.243 44.127 4.243 44.127 C4.243 44.127 1.451 46.5801 1.451 46.5801 C0.013 47.8438 0 48.9288 1.401 50.7295 C5.246 55.6719 10.884 56.709 14.937 56.709 C23.701 56.709 32.574 51.3262 32.574 41.0391 C32.574 32.1348 27.63 28.1817 20.205 24.9864 Z" />
 </g>
 <g transform="translate(283.443, 141.633)" style="fill:#66ffe5; fill-rule:nonzero; stroke:none; stroke-width:1pt; stroke-linecap:butt; stroke-linejoin:miter; stroke-dasharray:none;" >
  <path d="M34.0068 16.1709 C34.0068 7.417 26.9131 0 18.1553 0 C14.0371 0 10.2871 1.5704 7.4677 4.1465 C7.4677 4.1465 7.4677 1.1368 7.4677 1.1368 C7.4677 1.1368 2.1943 1.1368 2.1943 1.1368 C0.6054 1.1368 0 2.1739 0 3.3653 C0 3.3653 0 54.4473 0 54.4473 C0 55.8848 0.876 56.6543 2.1699 56.6543 C2.1699 56.6543 7.4443 56.6543 7.4443 56.6543 C7.4443 56.6543 7.4443 16.4825 7.4443 16.4805 C7.4443 11.2032 11.7256 6.9248 17.001 6.9248 C22.2783 6.9248 26.5586 11.2032 26.5586 16.4805 C26.5586 16.4825 26.5586 56.6602 26.5586 56.6602 C26.5586 56.6602 31.7998 56.6602 31.7998 56.6602 C33.2529 56.6602 34.0068 55.8545 34.0068 54.4629 C34.0068 54.4629 34.0068 16.2207 34.0068 16.1709 Z" />
 </g>
 <g transform="translate(320.773, 141.533)" style="fill:#ffffff; fill-rule:nonzero; stroke:none; stroke-width:1pt; stroke-linecap:butt; stroke-linejoin:miter; stroke-dasharray:none;" >
  <path d="M23.9154 3.918 C24.1904 3.5762 24.3604 3.1475 24.3604 2.6758 C24.3604 1.7969 23.7874 1.0586 22.9994 0.791 C21.4734 0.2793 19.8474 0 18.1584 0 C14.0404 0 10.2904 1.5703 7.4704 4.1455 C7.4704 4.1455 7.4704 1.1368 7.4704 1.1368 C7.4704 1.1368 2.1962 1.1368 2.1962 1.1368 C0.6084 1.1368 0 2.1739 0 3.3662 C0 3.3662 0 54.4473 0 54.4473 C0 55.8848 0.8808 56.6543 2.1738 56.6543 C2.1738 56.6543 7.4464 56.6543 7.4464 56.6543 C7.4464 56.6543 7.4464 16.4825 7.4464 16.4805 C7.4464 11.2032 11.7274 6.9239 17.0054 6.9239 C18.3874 6.9239 19.7004 7.2246 20.8854 7.752 C20.8854 7.752 23.9324 3.9287 23.9324 3.9287 C23.9324 3.9287 23.9154 3.918 23.9154 3.918 Z" />
 </g>
 <g transform="translate(299.048, 155.753)" style="fill:#ffffff; fill-rule:nonzero; stroke:none; stroke-width:1pt; stroke-linecap:butt; stroke-linejoin:miter; stroke-dasharray:none;" >
  <path d="M2.834 97.797 C2.834 98.58 2.1992 99.213 1.416 99.213 C0.6338 99.213 0 98.58 0 97.797 C0 97.797 0 1.417 0 1.417 C0 0.6338 0.6338 0 1.416 0 C2.1992 0 2.834 0.6338 2.834 1.417 C2.834 1.417 2.834 97.797 2.834 97.797 Z" />
 </g>
</svg>
